X:12023
T:Lamplighters Hornpipe
T:Merry Soldier
R:Hornpipe
C:Trad.
O:New England, after Ireland
Z:Paul Hardy's Session Tunebook 2015 (see www.paulhardy.net). Creative Commons cc by-nc-sa licenced.
M:4/4
L:1/8
Q:1/4=120
K:G
Bc|"G"dBdB dgfe|dBdB dgfe|dBdB "Em"edcB|"Am"c2A2 "D7"A2Bc|
"G"dBdB dgfe|dBdB dgfe|"D7"decd BcAB|"G"D2G2 G2:|
|:Bc|"G"dcBc d2ed|"D7"cBAB c2dc|"G"BGBd "Em"cBAG|"Am"FGAB "D7"A2Bc|
"G"dcBc d2ed|"D7"cBAB c2dc|"G"Bgfe "D7"dcBA|"G"G2B2 G2:|

